svgs/light/square-poll-horizontal.svg

<svg xmlns="http://www.w3.org/2000/svg" viewBox="0 0 448 512"><!-- Font Awesome Pro 6.0.0-alpha2 by @fontawesome - https://fontawesome.com License - https://fontawesome.com/license (Commercial License) --><path d="M384 32H64C28.654 32 0 60.654 0 96V416C0 451.346 28.654 480 64 480H384C419.346 480 448 451.346 448 416V96C448 60.654 419.346 32 384 32ZM416 416C416 433.645 401.645 448 384 448H64C46.355 448 32 433.645 32 416V96C32 78.355 46.355 64 64 64H384C401.645 64 416 78.355 416 96V416ZM112 176H240C248.844 176 256 168.844 256 160S248.844 144 240 144H112C103.156 144 96 151.156 96 160S103.156 176 112 176ZM336 240H112C103.156 240 96 247.156 96 256S103.156 272 112 272H336C344.844 272 352 264.844 352 256S344.844 240 336 240ZM176 336H112C103.156 336 96 343.156 96 352S103.156 368 112 368H176C184.844 368 192 360.844 192 352S184.844 336 176 336Z"/></svg>

<svg xmlns="http://www.w3.org/2000/svg" viewBox="0 0 448 512"><!--! Font Awesome Pro 6.0.0-alpha3 by @fontawesome - https://fontawesome.com License - https://fontawesome.com/license (Commercial License) --><path d="M384 31.1H64c-35.35 0-64 28.65-64 63.1v320c0 35.35 28.65 64 64 64h320c35.35 0 64-28.65 64-64v-320C448 60.65 419.3 31.1 384 31.1zM416 416c0 17.64-14.36 32-32 32H64c-17.64 0-32-14.36-32-32V96c0-17.64 14.36-32 32-32h320c17.64 0 32 14.36 32 32V416zM112 176h128C248.8 176 256 168.8 256 160s-7.156-16-16-16h-128C103.2 144 96 151.2 96 160S103.2 176 112 176zM336 240h-224C103.2 240 96 247.2 96 256s7.156 16 16 16h224C344.8 272 352 264.8 352 256S344.8 240 336 240zM176 336h-64C103.2 336 96 343.2 96 352s7.156 16 16 16h64C184.8 368 192 360.8 192 352S184.8 336 176 336z"/></svg>
